X:55
T:Espoirs perdus
C:A. Morelli
N:Tabledited by Mike Stangeland
L:1/8
Q:1/4=180
M:3/4
K:F
z6 | z2 [A2F2D2] [A2F2D2] | z2 [A2F2D2] [A2F2D2] | z2 [A2F2D2] [A2F2D2] | z2 [A2F2D2] A,2 | 
|: A6 | B4 A2 | F4 E2 | D4 DE | GF ED CB, | A,G, B,A, CB, | G,6 | [D2B,2] G,B, DG | 
B6 | e4 d2 | _d6 | [g4_d4A4] ef | g2 e2 _d2 | B2 G2 E2 | ED FE DF | [A4_D4] [A2A,2] | 
[a6A6] | [b4B4] [a2A2] | [f4F4] (3efe | d4 de | gf ed cB | AG BA cB | G6 | G2 z2 g2 | 
gf ef ga | gf eg fe | fe de fg | ag fe dc | BA _dA eA | BA _dA eA | [d2A2F2] z[dAF] [d2A2F2] | 
|1 [d2A2F2] z2 A,2 :|2 [d2A2F2] z2 c2 |: (3cdc =B2 c2 | a4 g2 | (3fgf e2 G2 | 
[B6E6] | (3fgf e2 G2 | [B6E6] | (3ded c2 F2 | [A6F6] | (3cdc =B2 c2 | b4 a2 | 
_d6 | d6 | c2 [b2B2] [g2B2] | [e2B2] [cB]z z[EB,] | [F6A,6] |1 [F2A,2] z2 c2 :|2 [F2A,2] z2 z2 | 
|: A,2 D2 F2 | A2 d2 e2 | f6 | f2 e2 d2 | c2 B2 A2 | G2 F2 D2 | [E6_D6] | [E2C2] z2 z2 | 
A,2 _D2 E2 | A2 _d2 e2 | g6 | g2 f2 e2 | d2 _d2 B2 | A2 E2 G2 | [F6D6] | [F2D2] z2 z2 | 
A,2 D2 F2 | A2 d2 e2 | f6 | f2 z2 z2 | [d6c6_G6] | [_e4c4_G4] [d2c2F2] | [g6B6G6] | 
[g6B6G6] | G,B, DG _GG | G,B, DG _GG | DF Ad _dd | DF Ad _dd | A_d ea _aa | A_d ea _aa | 
DF Ad fa | [d'2a2f2d2] z2 z2 | [c6A6F6] | [d6A6F6] | [B6G6E6] | [B2G2E2] z2 z2 | 
[d6B6G6] | [e6B6G6] | [c6A6F6] | [c2A2F2] [A2F2] [B2G2] | [=B2_A2] [c2A2] [d2_B2] | 
[c2A2] [A2F2] [c2A2] | [B6G6E6] | [B2G2E2] [G2E2] [c2E2] | [B6E6] | [B2E2] [G2E2] [d2B2] | 
[c6A6] | [c4A4] z2 | [c6A6F6] | [d6A6F6] | [B6G6E6] | [B2G2E2] z2 z2 | [d6B6G6] | 
[e6B6G6] | [c6A6F6] | [c2A2F2] [A2F2] [B2G2] | [=B2_A2] [c2A2] [d2_B2] | [c2A2] [A2F2] [c2A2] | 
[B6G6E6] | [B2G2E2] [G2E2] [c2E2] | [B6E6] | [B2E2] G2 E2 | [F6A,6] |1 [F2A,2] FG AB :|2 [F2A,2] z2 A,2 | 
z6 | 


